X:1
T:I’ll Praise Him While I Live
T:Hart Pease Danks
T:I’ll Praise Him While I Live
T:Public Domain
T:Public Domain
C:Hart Pease Danks
Z:Public Domain
%%score ( 1 2 ) ( 3 4 )
L:1/8
M:4/4
K:Eb
V:1 treble 
V:2 treble 
V:3 bass 
V:4 bass 
V:1
 E2 | [EG]2 [EG]2 [GB]2 [EG]2 | [DF]4 E2 E2 | [EF]2 [EF]2 [DF]2 ([EG][FA]) | [EG]6 [GB]2 | %5
w: 1.~No|ther name but Je-|sus, Be- fore|I plead; No o- *|ther friend|
w: 2.~No|like that of Je-|sus Can hear|I pray; No hand *|like that|
w: 3.~No|like those of Je-|sus Can give|and rest; No love *|like that|
w: 4.~For-|er and for- ev-|er, While all|es roll, His name *|shall be|
 [Ge]2 [Ge]2 [Bd]2 [Ac]2 | [GB]4 [EG]2 [EG]2 | [DF]2 [DB]2 [Ec]3 [Fd] | (D2 E2 F2) || %9
w: but Je- sus, For|me can in-|ter- cede. * *||
w: of Je- sus, Can|smooth life’s de-|vious way. I’ll praise|Him * *|
w: of Je- sus Can|make me tru-|ly blest. * *||
w: my watch- word, His|glo- ry fill|my soul. * *||
"^Refrain" [AB]2 | (G2 G2 A>A) ([Ad][Ac]) | [GB]2 ([EG]>[FA]) [GB]2 [^Fc]2 | [GB]2 [EG]2 E2 [EG]2 | %13
w: ||||
w: I|live; * * * My *|ly song * shall be,|I love my bless-|
w: ||||
w: ||||
 (F2 E2 D2) (G>F) | E2 E2 [EG]2 [GB]2 | [Ac]4 [GB]2 [^Fe]2 | [Ge]2 [EG]2 (cB)(AF) | [DF]4 E2 |] %18
w: |||||
w: Sav- * * ior, *|He first loved me.||||
w: |||||
w: |||||
V:2
 E2 | x8 | x4 E2 E2 | x8 | x8 | x8 | x8 | x8 | B6 || x2 | e6 x2 | x8 | x4 E2 x2 | F6 D2 | %14
w: o-||the throne||||||||||||
w: ear||me when||||||while||dai-||èd|Be- cause|
w: words||me joy||||||||||||
w: ev-||the ag-||||||||||||
 E2 E2 x4 | x8 | x4 D2 D2 | x4 E2 |] %18
w: ||||
w: ||||
w: ||||
w: ||||
V:3
 [E,G,]2 | [E,B,]2 [E,B,]2 [E,B,]2 [E,B,]2 | (B,,2 =B,,2) [C,G,]2 [C,G,]2 | %3
w: ~|~ ~ ~ ~|~ * ~ ~|
 [A,,C]2 [=A,,C]2 [B,,B,]2 [B,,B,]2 | [E,B,]6 [E,B,]2 | [E,B,]2 [E,B,]2 (A,B,)(CD) | %6
w: ~ ~ ~ ~|~ ~|~ ~ ~ * ~ *|
 [E,E]4 [E,B,]2 [E,B,]2 | [F,B,]2 [F,B,]2 [F,=A,]3 [F,A,] | (B,,2 C,2 D,2) || [D,B,]2 | %10
w: ~ ~ ~|~ ~ I’ll praise|Him, * *|him,|
 [E,B,]2 [E,B,]2 [A,C]>[A,C] [A,D][A,E] | [E,E]2 [E,B,]>[E,B,] [E,B,]2 [E,=A,]2 | %12
w: while I live, while I live;|My song, my dai- ly|
 [E,B,]2 [E,B,]2 [G,B,]2 [E,B,]2 | [D,B,]2 [C,=A,]2 [B,,B,]2 [B,,_A,]2 | %14
w: song shall be, *||
 [E,G,]2 [E,G,]2 [E,B,]2 [E,E]2 | [A,E]4 [E,E]2 [C,=A,]2 | [B,,B,]2 [B,,B,]2 [B,,A,]2 (F,A,) | %17
w: |||
 [B,,A,]4 [E,G,]2 |] %18
w: |
V:4
 x2 | x8 | A,4 x4 | x8 | x8 | x4 E,2 E,2 | x8 | x8 | B,6 || x2 | x8 | x8 | x8 | x8 | x8 | x8 | %16
w: ||~|||~ ~|||praise||||||||
 x6 B,,2 | x6 |] %18
w: ||

